X: 19294
T: J. B. Milne
R: polka
M: 2/4
K: Gmajor
L: 1/16
Bc|dedc B2G2|D2G2 B4|BdcB A2G2|c4- c2AB|
cdcB A2F2|D2F2 A4|AcBA G2A2|B4- B2Bc|
dedc B2G2|D2G2 B4|BdcB A2G2|e4- e2ef|
ge^cB G2gf|edBG D2fe|(3ded ^cd e2f2|g4- g2Bc|
d2B2 e2B2|d2B2 e2B2|d2^cd edcB|c4- c2AB|
c2A2 d2A2|c2A2 d2A2|c2Bc dcBA|B4- B2Bc|
d2B2 e2B2|d2B2 e2B2|g2fg agfg|e2ee e2ef|
gagf egfe|edBG D2fe|(3ded ^cd e2f2|g4- g2||

